X:1
T:Jubilee Hornpipe. Roose.1071
L:1/8
Q:1/4=120
M:4/4
I:linebreak $
K:A
V:1 treble 
V:1
 ed | cBAG Aaga | fedc dfed | cBAG ABcd | BAGF E2 ed | cBAG Aaga |$ fedc dfed | cBAG AGFE | %8
 FAGB A2 :: ed | caea caea | dafa dafa |$ caea caea | BAGF E2 ed | caea caea | dafa dafa | %16
 edcB AGFE | FAGB A2 :| %18
